src/assets/outline/SearchNormal1.svg

<svg width="24" height="24" viewBox="0 0 24 24"  xmlns="http://www.w3.org/2000/svg">
<path d="M11.5 21.75C5.85 21.75 1.25 17.15 1.25 11.5C1.25 5.85 5.85 1.25 11.5 1.25C17.15 1.25 21.75 5.85 21.75 11.5C21.75 17.15 17.15 21.75 11.5 21.75ZM11.5 2.75C6.67 2.75 2.75 6.68 2.75 11.5C2.75 16.32 6.67 20.25 11.5 20.25C16.33 20.25 20.25 16.32 20.25 11.5C20.25 6.68 16.33 2.75 11.5 2.75Z" />
<path d="M21.9999 22.7495C21.8099 22.7495 21.6199 22.6795 21.4699 22.5295L19.4699 20.5295C19.1799 20.2395 19.1799 19.7595 19.4699 19.4695C19.7599 19.1795 20.2399 19.1795 20.5299 19.4695L22.5299 21.4695C22.8199 21.7595 22.8199 22.2395 22.5299 22.5295C22.3799 22.6795 22.1899 22.7495 21.9999 22.7495Z" />
</svg>

<?xml version="1.0" encoding="UTF-8"?>
<svg width="24" height="24" viewBox="0 0 24 24" xmlns="http://www.w3.org/2000/svg">
 <path d="m11.5 21.75c-5.65 0-10.25-4.6-10.25-10.25s4.6-10.25 10.25-10.25 10.25 4.6 10.25 10.25-4.6 10.25-10.25 10.25zm0-19c-4.83 0-8.75 3.93-8.75 8.75s3.92 8.75 8.75 8.75 8.75-3.93 8.75-8.75-3.92-8.75-8.75-8.75z"/>
 <path d="m22 22.75c-0.19 0-0.38-0.07-0.53-0.22l-2-2c-0.29-0.29-0.29-0.77 0-1.06s0.77-0.29 1.06 0l2 2c0.29 0.29 0.29 0.77 0 1.06-0.15 0.15-0.34 0.22-0.53 0.22z"/>
</svg>
